img/icon/i-bag-blue.svg

<svg width="22" height="22" viewBox="0 0 22 22" fill="none" xmlns="http://www.w3.org/2000/svg">
<path d="M4.33333 18.7044H3.22222C1.99444 18.7044 1 17.71 1 16.4822V13.7567C1 12.4756 2.03889 11.4367 3.32 11.4367H4.33333M17.6667 18.7044H18.7778C20.0056 18.7044 21 17.71 21 16.4822V13.7044C21 12.4767 20.0056 11.4822 18.7778 11.4822H17.6667M14.3333 4.33333V3.22222C14.3333 1.99444 13.3389 1 12.1111 1H9.88889C8.66111 1 7.66667 1.99444 7.66667 3.22222V4.33333M12.1111 8.77778H9.88889M13.2222 17.5489H8.77778C8.16444 17.5489 7.66667 17.0511 7.66667 16.4378V14.2156C7.66667 13.6022 8.16444 13.1044 8.77778 13.1044H13.2222C13.8356 13.1044 14.3333 13.6022 14.3333 14.2156V16.4378C14.3333 17.0522 13.8356 17.5489 13.2222 17.5489ZM13.2222 4.33333H8.77778C6.32333 4.33333 4.33333 6.32333 4.33333 8.77778V18.7778C4.33333 20.0056 5.32778 21 6.55556 21H15.4444C16.6722 21 17.6667 20.0056 17.6667 18.7778V8.77778C17.6667 6.32333 15.6767 4.33333 13.2222 4.33333Z" stroke="url(#paint0_linear)" stroke-width="1.5492" stroke-linecap="round" stroke-linejoin="round"/>
<defs>
<linearGradient id="paint0_linear" x1="1" y1="1" x2="1" y2="21" gradientUnits="userSpaceOnUse">
<stop stop-color="#5986FB"/>
<stop offset="1" stop-color="#2D4EF5"/>
</linearGradient>
</defs>
</svg>

<svg width="22" height="22" fill="none" xmlns="http://www.w3.org/2000/svg"><path d="M4.333 18.704h-1.11A2.222 2.222 0 0 1 1 16.482v-2.725a2.32 2.32 0 0 1 2.32-2.32h1.013m13.334 7.267h1.11A2.222 2.222 0 0 0 21 16.482v-2.778a2.222 2.222 0 0 0-2.222-2.222h-1.111m-3.334-7.149v-1.11A2.222 2.222 0 0 0 12.111 1H9.89a2.222 2.222 0 0 0-2.222 2.222v1.111m4.444 4.445H9.89m3.333 8.77H8.778a1.112 1.112 0 0 1-1.111-1.11v-2.222c0-.614.497-1.112 1.11-1.112h4.445c.614 0 1.111.498 1.111 1.112v2.222a1.11 1.11 0 0 1-1.11 1.11zm0-13.215H8.778a4.445 4.445 0 0 0-4.445 4.445v10c0 1.228.995 2.222 2.223 2.222h8.888a2.222 2.222 0 0 0 2.223-2.222v-10a4.445 4.445 0 0 0-4.445-4.445z" stroke="url(#paint0_linear)" stroke-width="1.549" stroke-linecap="round" stroke-linejoin="round"/><defs><linearGradient id="paint0_linear" x1="1" y1="1" x2="1" y2="21" gradientUnits="userSpaceOnUse"><stop stop-color="#5986FB"/><stop offset="1" stop-color="#2D4EF5"/></linearGradient></defs></svg>
